svgs/regular/campfire.svg

<svg xmlns="http://www.w3.org/2000/svg" viewBox="0 0 512 512"><!-- Font Awesome Pro 6.0.0-alpha2 by @fontawesome - https://fontawesome.com License - https://fontawesome.com/license (Commercial License) --><path d="M255.984 320C335.48 320 399.978 255.5 399.978 176C399.978 142.75 366.605 74 319.982 32C306.607 44 294.482 56.75 283.857 69.5C266.359 46 244.609 22.25 219.986 0C156.863 57 111.99 131.25 111.99 176C111.99 255.5 176.488 320 255.984 320ZM220.236 67.875C229.361 77.875 237.859 88.125 245.359 98.25L281.609 146.75L318.482 102.875C339.855 133.25 351.98 165.125 351.98 176C351.98 228.875 308.982 272 255.984 272C203.111 272 159.988 228.875 159.988 176C159.988 156.625 180.736 112.625 220.236 67.875ZM496.146 465.438L326.47 404L496.146 342.562C508.615 338.062 515.084 324.281 510.552 311.844C506.052 299.344 492.273 292.969 479.836 297.438L256 378.484L32.164 297.438C19.758 292.969 5.947 299.344 1.447 311.844C-3.084 324.281 3.385 338.062 15.853 342.562L185.529 404L15.853 465.438C3.385 469.938 -3.084 483.719 1.447 496.156C4.978 505.938 14.197 512 24.008 512C26.726 512 29.476 511.531 32.164 510.562L256 429.516L479.836 510.562C482.523 511.531 485.273 512 487.992 512C497.802 512 507.021 505.938 510.552 496.156C515.084 483.719 508.615 469.938 496.146 465.438Z"/></svg>

<svg xmlns="http://www.w3.org/2000/svg" viewBox="0 0 512 512"><!--! Font Awesome Pro 6.0.0-alpha3 by @fontawesome - https://fontawesome.com License - https://fontawesome.com/license (Commercial License) --><path d="M256 320c79.5 0 144-64.5 144-144c0-33.25-33.38-102-80-144c-13.38 12-25.5 24.75-36.13 37.5C266.4 46 244.6 22.25 220 0c-63.12 57-108 131.3-108 176C112 255.5 176.5 320 256 320zM220.2 67.88c9.125 10 17.62 20.25 25.12 30.38l36.25 48.5l36.87-43.88C339.9 133.3 351.1 165.1 351.1 176c0 52.88-42.1 96-95.1 96c-52.87 0-95.1-43.13-95.1-96C159.1 156.6 180.7 112.6 220.2 67.88zM496.1 465.4L326.5 404l169.7-61.44c12.47-4.5 18.94-18.28 14.41-30.72c-4.5-12.5-18.28-18.88-30.72-14.41L256 378.5L32.16 297.4C19.76 292.1 5.947 299.3 1.447 311.8c-4.531 12.44 1.938 26.22 14.41 30.72L185.5 404l-169.7 61.44c-12.47 4.5-18.94 18.28-14.41 30.72C4.979 505.9 14.2 512 24.01 512c2.719 0 5.469-.4687 8.156-1.438L256 429.5l223.8 81.05C482.5 511.5 485.3 512 487.1 512c9.811 0 19.03-6.062 22.56-15.84C515.1 483.7 508.6 469.9 496.1 465.4z"/></svg>
